X:4490
T:Muster Grass
O:england
R:Hornpipe
C:Ed Reavy
M:4/4
L:1/8
N:The other half of Connemara Skies (cf. 99 ).
K:G
B,A,|G,B,DG B2 cB|cAFA G2 FG|A^GAB cBA=G|
FGAF D2 Bc|dBGD G,B,DG|cAFA c2 dc|
(3BdB GB ADFG|AGGF G2:||Bc|dggf gedc|
BGBD gdcB|Aaa^g aba=g|fbaf gefd|bagf gdBG|
FGAB cbag|fedB cAFG|AGGF G2:||


